X:1
T:A-Part
L:1/8
Q:3/8=130
M:6/8
K:G
"G""^A-Part" G3 GAB |"D" A3 ABd |"Em" edd gdd |"C" edB"D" dBA |
"G" GAG GAB |"D" ABA ABd |"Em" edd"C" gdd |"D" ABF"G" G3 ::
"G" B2 B d2 d |"Em" ege dBA |"C" B2 B dBG |"D" ABA AGA |
"G" BAB d^cd |"C" ege dBd |"D" gfg aga |"G" bgg g3 :|z3 !fermata!G3 |]
